!!!!SEGMENT: pl-kk--kk-i-1--003-004-pc2_anonim--missa-sanctus-post-correcturam-2-pc2.krn
!!!cenid: 15xx:666c
!!!COM: Anonim
!!!COM-rismID: pe30004985
!!!CDT:
!!!CNT:
!!!OPR: [Missa]
!!!OTL: Sanctus [post correcturam 2]
!!!OMV: 004
!!!PDT:
!!!AGN:
!!!YEC: Copyright 2022 Narodowy Instytut Fryderyka Chopina (https://polishscores.org)
!!!YEM: License CC-BY-4.0 (https://creativecommons.org/licenses/by/4.0)
!!!SMS-siglum: PL-Kk
!!!SMS-shelfmark: Kk.I.1
!!!SMS-shelfwork: 003-004 M
!!!SMS-variant:
!!!SMS-altvar:
!!!NIFC-rismSourceID: 300257954
!!!NIFC-rismChildID: 300257957
!!!NIFC-islandoraID: pl-kk:1
!!!URL-pdf-islandora: https://repozytorium.nifc.pl/islandora/object/pl-kk%3A1/datastream/PDF/view
!!!URL-scan: https://polish.musicsources.pl/pl/lokalizacje/galeria/rekopisy/5736 @EN{Scan on Polish Music Sources Website} @PL{Skany w portalu Dziedzictwo Muzyki Polskiej w otwartym dostępie}
!!!IIIF: https://repozytorium.nifc.pl/islandora/object/pl-kk%3A1/datastream/IIIF/view
!!!ONB-nifc: UWAGA: Cantus (s. 12r-21r, skan 0014-0023), Altus (s. 12v-20v, skan 0205-0213), Tenor (s. 12v-21v, skan 0401-0410), Bassus (s. 12v-20v, skan 0574-0582). Części Mszy: 1. Kyrie, 2. Et in terra, 3. Patrem, 4. Sanctus, 5. Agnus Dei
!!!AIN: 1 alto 1 bass 1 soprn 1 tenor
!!!key: F
**kern	**text	**kern	**text	**kern	**text	**kern	**text
*part4	*	*part3	*	*part2	*	*part1	*
*staff4	*	*staff3	*	*staff2	*	*staff1	*
*I"BASSVS	*	*I"TENOR	*	*I"ALTVS	*	*I"CANTVS	*
*I'B	*	*I'T	*	*I'A	*	*I'S	*
*Ibass	*	*Itenor	*	*Ialto	*	*Isoprn	*
*ICvox	*	*ICvox	*	*ICvox	*	*ICvox	*
*clefF4	*	*clefC4	*	*clefC3	*	*clefC3	*
*k[b-]	*	*k[b-]	*	*k[b-]	*	*k[b-]	*
*F:	*	*F:	*	*F:	*	*F:	*
*M2/1	*	*M2/1	*	*M2/1	*	*M2/1	*
*met(C|)	*	*met(C|)	*	*met(C|)	*	*met(C|)	*
*all\right	*	*all\right	*	*all\right	*	*all\right	*
=1-	=1-	=1-	=1-	=1-	=1-	=1-	=1-
*xywh-#580:1078,1193,4316,957	*	*xywh-#408:1017,614,4405,882	*	*xywh-#211:1160,525,4300,885	*	*xywh-#21:5603,2049,4406,960	*
!	!	!	!	!LO:TX:t=P:problem=kreska pseudotaktowa	!	!	!
0r	.	00r	.	1r	.	1.F	SAn-
.	.	.	.	1.F	SAn-	.	.
!	!	!	!	!	!	!LO:TX:t=P:problem=kreska pseudotaktowa	!
.	.	.	.	.	.	2G/	-ctus,
=2-	=2-	=2-	=2-	=2-	=2-	=2-	=2-
!LO:TX:t=P:problem=kreska pseudotaktowa	!	!	!	!	!	!	!
1r	.	.	.	.	.	2A/	.
.	.	.	.	2G/	-ctus,	2B-/	.
!	!	!	!	!	!	!LO:TX:t=P:problem=kreska pseudotaktowa	!
1.F	SAn-	.	.	2.A/	.	1c	.
!	!	!	!	!LO:TX:t=P:problem=kreska pseudotaktowa	!	!	!
.	.	.	.	4G/	.	.	.
=3-	=3-	=3-	=3-	=3-	=3-	=3-	=3-
*2\right	*	*	*	*	*	*2\right	*
!	!	!LO:TX:t=P:problem=kreska pseudotaktowa	!	!	!	!	!
.	.	0F	SAn-	4A/	.	2d\	.
.	.	.	.	4B-/	.	.	.
2E\	.	.	.	1c	.	2e\	.
!LO:TX:t=P:problem=kreska pseudotaktowa	!	!	!	!	!	!	!
1D	-ctus,	.	.	.	.	1f	.
.	.	.	.	2B-/	.	.	.
=4-	=4-	=4-	=4-	=4-	=4-	=4-	=4-
!	!	!	!	!LO:TX:t=P:problem=kreska pseudotaktowa	!	!	!
0C	.	1.G	-ctus	0c	.	1.e	.
.	.	2A/	.	.	.	4d\	.
!	!	!	!	!	!	!LO:TX:t=P:problem=kreska pseudotaktowa	!
.	.	.	.	.	.	4c\	.
=5-	=5-	=5-	=5-	=5-	=5-	=5-	=5-
*	*	*2\right	*	*	*	*	*
1.BB-	san-	2.B-\	.	0F	San-	2.d\	.
!	!	!LO:TX:t=P:problem=kreska pseudotaktowa	!	!	!	!LO:TX:t=P:problem=kreska pseudotaktowa	!
.	.	4c\	.	.	.	4c/	.
.	.	2d\	.	.	.	2B-/	.
!LO:TX:t=P:problem=kreska pseudotaktowa	!	!	!	!	!	!	!
2AA/	.	2.c\	.	.	.	2.f\	.
=6-	=6-	=6-	=6-	=6-	=6-	=6-	=6-
*	*	*	*	*lig	*	*	*
1GG	-ctus,	.	.	1G	.	.	.
.	.	4B-\	.	.	.	4e\	San-
!	!	!LO:TX:t=P:problem=kreska pseudotaktowa	!	!	!	!LO:TX:t=P:problem=kreska pseudotaktowa	!
.	.	2B-\	.	.	.	2e\	-ctus,
!	!	!LO:TX:t=P:problem=kreska pseudotaktowa	!	!	!	!	!
*	*	*	*	*col	*	*	*
*	*	*	*	*	*	*custos:e	*
2.FF/	.	1c	.	2.A/	.	1f	.
*	*	*	*	*Xlig	*	*	*
!LO:TX:t=P:problem=kreska pseudotaktowa	!	!	!	!	!	!	!
4GG/	.	.	.	4B-/	-ctus,	.	.
*	*	*	*	*Xcol	*	*	*
!	!	!	!	!	!	!LO:LB:g=original	!
=7-	=7-	=7-	=7-	=7-	=7-	=7-	=7-
*	*	*	*	*	*	*xywh-#21:5682,2788,4318,937	*
*	*	*	*	*lig	*	*	*
!	!	!	!	!	!	!LO:TX:t=P:problem=kreska pseudotaktowa	!
4AA/	.	2r	.	1c	.	1e	.
4BB-/	.	.	.	.	.	.	.
1C	.	2.G/	san-	.	.	.	.
.	.	.	.	1d	.	2r	.
.	.	4A/	.	.	.	.	.
!	!	!LO:TX:t=P:problem=kreska pseudotaktowa	!	!	!	!	!
2BB-/	.	2B-/	-ctus,	.	.	1f\	do-
*	*	*	*	*Xlig	*	*	*
=8-	=8-	=8-	=8-	=8-	=8-	=8-	=8-
*lig	*	*	*	*	*	*	*
1C	.	2A/	.	1c	.	.	.
!	!	!	!	!	!	!LO:TX:t=P:problem=kreska pseudotaktowa	!
.	.	2.G/	.	.	.	2e\	-mi-
*	*	*	*	*custos:f	*	*	*
!	!	!	!	!LO:TX:t=P:problem=kreska pseudotaktowa	!	!	!
1D	.	.	.	2r	.	2d\	.
.	.	4F/	.	.	.	.	.
*	*	*	*	*2\right	*	*	*
*	*	*custos:G	*	*	*	*	*
*	*	*	*	*xywh-#211:1308,1291,4215,828	*	*	*
!	!	!LO:TX:t=P:problem=kreska pseudotaktowa	!	!LO:LB:g=original	!	!	!
.	.	2F/	.	2.f\	do-	2B-/	-nus
*Xlig	*	*	*	*	*	*	*
!	!	!LO:LB:g=original	!	!	!	!	!
=9-	=9-	=9-	=9-	=9-	=9-	=9-	=9-
*	*	*xywh-#408:1160,1405,4262,819	*	*	*	*	*
1C	.	1G	do-	.	.	2.c/	de-
.	.	.	.	4e\	.	.	.
!	!	!	!	!LO:TX:t=P:problem=kreska pseudotaktowa	!	!	!
.	.	.	.	2e\	-mi-	.	.
!	!	!	!	!	!	!LO:TX:t=P:problem=kreska pseudotaktowa	!
.	.	.	.	.	.	4B-/	-us
*custos:F	*	*	*	*	*	*	*
!LO:TX:t=P:problem=kreska pseudotaktowa	!	!	!	!	!	!	!
2r	.	2.F/	-mi-	2d\	-nus	4A/	.
.	.	.	.	.	.	4G/	ſab-
*xywh-#580:1061,2008,4350,935	*	*	*	*	*	*	*
!LO:LB:g=original	!	!	!	!	!	!	!
1F\	do-	.	.	2c/	.	2.A/	-ba-
!	!	!LO:TX:t=P:problem=kreska pseudotaktowa	!	!	!	!	!
.	.	4E/	.	.	.	.	.
=10-	=10-	=10-	=10-	=10-	=10-	=10-	=10-
.	.	2D/	-nus	2d\	de-	.	.
.	.	.	.	.	.	4B-/	-oth,
!LO:TX:t=P:problem=kreska pseudotaktowa	!	!	!	!LO:TX:t=P:problem=kreska pseudotaktowa	!	!LO:TX:t=P:problem=kreska pseudotaktowa	!
2E\	-mi-	2C/	.	2e\	-us	2c/	.
2D/	.	2D/	.	2f\	.	2F/	.
!	!	!LO:TX:t=P::problem=kreska pseudotaktowa&colon;między nutą a kropką	!	!	!	!	!
2.C/	-nus	2.E/	.	2.e\	ſab-	1G/	.
=11-	=11-	=11-	=11-	=11-	=11-	=11-	=11-
.	.	.	.	.	.	.	.
4D/	de-	4F/	.	4d\	-ba-	.	.
*	*	*	*	*	*	*	*ij
!	!	!	!	!LO:TX:t=P:problem=kreska pseudotaktowa	!	!LO:TX:t=P::problem=kreska pseudotaktowa&colon;między nutą a kropką	!
2E\	-us	2G/	.	2.c/	-oth,	2.g\	do-
1D	.	2A/	.	.	.	.	.
.	.	.	.	4B-/	.	4f\	-mi-
!	!	!LO:TX:t=P:problem=kreska pseudotaktowa	!	!	!	!	!
.	.	2F/	ſab-	2B-/	.	2.f\	-nus
=12-	=12-	=12-	=12-	=12-	=12-	=12-	=12-
!LO:TX:t=P:problem=kreska pseudotaktowa	!	!	!	!LO:TX:t=P:problem=kreska pseudotaktowa	!	!	!
1C	.	1G	-ba-	1c	.	.	.
.	.	.	.	.	.	4e\	de-
!	!	!	!	!	!	!LO:TX:t=P:problem=kreska pseudotaktowa	!
.	.	.	.	.	.	2e\	-us
*	*	*	*	*	*	*custos:d	*
!	!	!	!	!	!	!LO:TX:t=P:problem=kreska pseudotaktowa	!
1FF	.	2F/	-oth,	2r	.	1f	ſab-
*	*	*	*	*	*ij	*	*
.	.	2A/	.	2.c/	do-	.	.
!	!	!	!	!	!	!LO:PB:g=original	!
=13-	=13-	=13-	=13-	=13-	=13-	=13-	=13-
*	*	*	*	*	*	*xywh-#22:1082,562,4144,949	*
!LO:TX:t=P:problem=kreska pseudotaktowa	!	!	!	!	!	!	!
1GG	.	1G	.	.	.	1d	-ba-
.	.	.	.	4B-/	.	.	.
!	!	!	!	!LO:TX:t=P:problem=kreska pseudotaktowa	!	!	!
.	.	.	.	2B-/	-mi-	.	.
!	!	!LO:TX:t=P:problem=kreska pseudotaktowa	!	!	!	!LO:TX:t=P:problem=kreska pseudotaktowa	!
2r	.	1C	.	2A/	.	1c	-oth
1C/	do-	.	.	2.G/	-nus	.	.
=14-	=14-	=14-	=14-	=14-	=14-	=14-	=14-
.	.	2r	.	.	.	1r	.
.	.	.	.	4A/	.	.	.
*	*	*	*	*custos:c	*	*	*
!LO:TX:t=P:problem=kreska pseudotaktowa	!	!	!	!LO:TX:t=P:problem=kreska pseudotaktowa	!	!	!
2BB-/	-mi-	1F	do-	2B-/	de-	.	.
*	*	*	*	*xywh-#211:1280,2039,4146,833	*	*	*
2AA/	.	.	.	4c/	.	2r	.
.	.	.	.	4A/	.	.	.
!	!	!LO:TX:t=P:problem=kreska pseudotaktowa	!	!	!	!LO:TX:t=P:problem=kreska pseudotaktowa	!
2.GG/	-nus	2E-X/	-mi-	4B-/	.	1.G/	ſab-
!	!	!	!	!LO:TX:t=P:problem=kreska pseudotaktowa	!	!	!
.	.	.	.	4c/	.	.	.
=15-	=15-	=15-	=15-	=15-	=15-	=15-	=15-
.	.	1D	-nus	2d\	.	.	.
4AA/	de-	.	.	.	.	.	.
!LO:TX:t=P:problem=kreska pseudotaktowa	!	!	!	!	!	!	!
2BB-/	-us	.	.	2B-/	-us	.	.
2AA/	ſab-	2C/	.	2c/	ſab-	4A/	.
.	.	.	.	.	.	4B-/	.
!	!	!	!	!LO:TX:t=P:problem=kreska pseudotaktowa	!	!	!
2FF/	-ba-	2.F/	de-	2A/	.	4c/	.
!	!	!	!	!	!	!LO:TX:t=P:problem=kreska pseudotaktowa	!
.	.	.	.	.	.	4A/	.
=16-	=16-	=16-	=16-	=16-	=16-	=16-	=16-
1GG	-oth,	.	.	1G	-ba-	1B-	-ba-
*	*	*custos:E	*	*	*	*	*
.	.	4Eny/	-us	.	.	.	.
*	*	*xywh-#408:1166,2116,4337,853	*	*	*	*	*
!	!	!LO:LB:g=original	!	!	!	!	!
!	!	!LO:TX:t=P:problem=kreska pseudotaktowa	!	!	!	!	!
.	.	2E/	.	.	.	.	.
!	!	!	!	!LO:TX:t=P:problem=kreska pseudotaktowa	!	!	!
1FF	.	2F/	.	0c	-oth	2A/	-oth
*	*	*	*	*	*Xij	*	*Xij
.	.	1A\	.	.	.	1f\	ſab-
=17-	=17-	=17-	=17-	=17-	=17-	=17-	=17-
*lig	*	*	*	*	*	*	*
1C	.	.	.	.	.	.	.
!	!	!	!	!	!	!LO:TX:t=P:problem=kreska pseudotaktowa	!
.	.	2.G/	ſab-	.	.	2e\	-ba-
*custos:C	*	*	*	*	*	*	*
!LO:TX:t=P:problem=kreska pseudotaktowa	!	!	!	!	!	!	!
1D	.	.	.	2r	.	2d\	-oth,
.	.	4F/	-ba-	.	.	.	.
!	!	!LO:TX:t=P:problem=kreska pseudotaktowa	!	!	!	!	!
.	.	2F/	-oth,	1f\	ſab-	2B-/	.
*Xlig	*	*	*	*	*	*	*
!LO:LB:g=original	!	!	!	!	!	!	!
=18-	=18-	=18-	=18-	=18-	=18-	=18-	=18-
*xywh-#580:1078,2681,4259,957	*	*	*	*	*	*	*
!LO:TX:t=P:problem=kreska pseudotaktowa	!	!	!	!	!	!	!
1C	.	1G	.	.	.	2.c/	.
!	!	!	!	!LO:TX:t=P:problem=kreska pseudotaktowa	!	!	!
.	.	.	.	2e\	.	.	.
!	!	!	!	!	!	!LO:TX:t=P:problem=kreska pseudotaktowa	!
.	.	.	.	.	.	4B-/	.
2r	.	2.F/	do-	2d\	-ba-	4A/	.
.	.	.	.	.	.	4G/	.
1F\	do-	.	.	2c/	.	2.A/	.
!	!	!LO:TX:t=P:problem=kreska pseudotaktowa	!	!	!	!	!
.	.	4E/	.	.	.	.	.
=19-	=19-	=19-	=19-	=19-	=19-	=19-	=19-
.	.	2D/	-mi-	2d\	-oth,	.	.
.	.	.	.	.	.	4B-/	.
!LO:TX:t=P:problem=kreska pseudotaktowa	!	!	!	!LO:TX:t=P:problem=kreska pseudotaktowa	!	!LO:TX:t=P:problem=kreska pseudotaktowa	!
2E\	-mi-	2C/	-nus	2e\	.	2c/	.
*	*	*	*	*	*	*xywh-#22:1082,1388,4189,859	*
!	!	!	!	!	!	!LO:LB:g=original	!
2D/	-nus	2D/	.	2f\	.	2F/	.
!	!	!	!	!	!	!LO:TX:t=P:problem=kreska pseudotaktowa	!
2.C/	.	2.E/	de-	1e\	.	2G/	.
=20-	=20-	=20-	=20-	=20-	=20-	=20-	=20-
.	.	.	.	.	.	1g	ſab-
4D/	de-	4F/	-us	.	.	.	.
!LO:TX:t=P:problem=kreska pseudotaktowa	!	!LO:TX:t=P:problem=kreska pseudotaktowa	!	!LO:TX:t=P:problem=kreska pseudotaktowa	!	!	!
2E\	-us	2G/	ſab-	2c/	.	.	.
2D/	.	2A/	-ba-	1d	.	2.f\	-ba-
2BB-/	ſab-	2B-\	-oth,	.	.	.	.
.	.	.	.	.	.	8e\L	-oth;
!	!	!	!	!	!	!LO:TX:t=P:problem=kreska pseudotaktowa	!
.	.	.	.	.	.	8d\J	.
=21-	=21-	=21-	=21-	=21-	=21-	=21-	=21-
!	!	!	!	!LO:N:vis=00	!	!	!
2.C/	-ba-	2G/	.	0c	.	2e\	.
.	.	1A	.	.	.	4c\	.
!LO:TX:t=P:problem=kreska pseudotaktowa	!	!	!	!	!	!LO:TX:t=P:problem=kreska pseudotaktowa	!
4BB-/	-oth,	.	.	.	.	4d\	.
2AA/	.	.	.	.	.	4e\	.
.	.	.	.	.	.	4c\	.
*	*	*	*	*	*	*	*ij
2FF/	.	2A/	.	.	.	2.f\	ſab-
=22-	=22-	=22-	=22-	=22-	=22-	=22-	=22-
1C	.	1G	.	0cl;<	.	.	.
.	.	.	.	.	.	4e\	.
.	.	.	.	.	.	2e\	-ba-
*custos:F	*	*custos:A	*	*	*	*	*
1FFl;	.	1Fl;	.	.	.	1fl;<	-oth
*	*	*	*	*	*	*	*Xij
!LO:LB:g=original	!	!	!	!LO:LB:g=original	!	!	!
=23||	=23||	=23||	=23||	=23||	=23||	=23||	=23||
*xywh-#580:5708,690,4310,866	*	*xywh-#408:788,3485,4818,572	*	*xywh-#382:6155,522,4360,965	*	*	*
*	*	*clefC3	*	*	*	*	*
*M2/1	*	*M2/1	*	*M2/1	*	*M2/1	*
*met(C|)	*	*met(C|)	*	*met(C|)	*	*met(C|)	*
!	!	!	!	!LO:TX:a:i:t=Alt.\n<...>iu.	!	!	!
!LO:TX:t=P:problem=kreska pseudotaktowa	!	!LO:TX:a:i:t=Vide\ninfra altu	!	!LO:TX:t=P:problem=alternatywna wersja dopisana na str. 189 [karta 0382]	!	!	!
1r	.	1.A	.	0r	.	1.c	Ple-
1.F	Ple-	.	.	.	.	.	.
!	!	!LO:TX:t=P:problem=kreska pseudotaktowa	!	!	!	!LO:TX:t=P:problem=kreska pseudotaktowa	!
.	.	2A/	.	.	.	2c/	-ni
=24-	=24-	=24-	=24-	=24-	=24-	=24-	=24-
.	.	2B-/	.	2r	.	2d/	ſunt
!LO:TX:t=P:problem=kreska pseudotaktowa	!	!LO:TX:t=P:problem=kreska pseudotaktowa	!	!	!	!	!
2F\	-ni	2A/	.	2F/	Ple-	2c/	cae-
2G\	ſunt	2G/	.	2B-/	-ni	2B-/	-l[i]
*	*	*	*	*	*	*xywh-#22:1082,2078,4172,949	*
!	!	!	!	!	!	!LO:LB:g=original	!
2F\	.	2A/	.	2A/	ſ(un)t	2.c/	et
=25-	=25-	=25-	=25-	=25-	=25-	=25-	=25-
2E\	cae-	2G/	.	2G/	Cae-	.	.
.	.	.	.	.	.	4B-/	.
2.F\	-li	4c\	.	4c/	-li	4A/	.
!	!	!LO:TX:t=P:problem=kreska pseudotaktowa	!	!	!	!LO:TX:t=P:problem=kreska pseudotaktowa	!
.	.	4B-\	.	4B-/	.	4G/	.
.	.	4A\	.	4A/	.	1F	.
4E\	.	4G/	.	4G/	.	.	.
4D/	.	4F/	.	1F/	.	.	.
!LO:TX:t=P:problem=kreska pseudotaktowa	!	!	!	!	!	!	!
4C/	.	4A/	.	.	.	.	.
=26-	=26-	=26-	=26-	=26-	=26-	=26-	=26-
1BB-	.	4B-\	.	.	.	2.f\	.
.	.	4c\	.	.	.	.	.
*	*	*	*	*2\left	*	*	*
.	.	4d\	.	2.f\	et	.	.
!	!	!LO:TX:t=P:problem=kreska pseudotaktowa	!	!	!	!LO:TX:t=P:problem=kreska pseudotaktowa	!
.	.	4e\	.	.	.	4e\	et
2.B-\	.	4f\	.	.	.	4d\	ter-
.	.	4e\	.	4e/	.	4c\	-ra,
.	.	4d\	.	4d/	.	1B-/	.
!LO:TX:t=P:problem=kreska pseudotaktowa	!	!	!	!	!	!	!
4A\	et	4f\	.	4c/	.	.	.
=27-	=27-	=27-	=27-	=27-	=27-	=27-	=27-
2G\	ter-	4e\	.	2B-/	.	.	.
.	.	4d\	.	.	.	.	.
!	!	!	!	!	!	!LO:TX:t=P:problem=kreska pseudotaktowa	!
2.F\	-ra,	4e\	.	2c/	.	2A/	.
!	!	!LO:TX:t=P:problem=kreska pseudotaktowa	!	!	!	!	!
.	.	4f\	.	.	.	.	.
.	.	4g\	.	2d/	.	1G	.
4E\	.	4c\	.	.	.	.	.
!LO:TX:t=P:problem=kreska pseudotaktowa	!	!	!	!	!	!	!
2E\	.	4d\	.	1c	.	.	.
.	.	4e\	.	.	.	.	.
=28-	=28-	=28-	=28-	=28-	=28-	=28-	=28-
*	*	*2\left	*	*2\left	*	*	*
!	!	!	!	!	!	!LO:TX:t=P:problem=kreska pseudotaktowa	!
1D	.	2f\	.	.	.	1F	.
!	!	!LO:TX:t=P:problem=kreska pseudotaktowa	!	!	!	!	!
.	.	2d\	.	2B-/	ter-	.	.
!LO:TX:t=P:problem=kreska pseudotaktowa	!	!	!	!	!	!	!
1C	.	2e\	.	2.c/	-ra	2r	.
.	.	1g\	.	.	glo-	2G/	glo-
.	.	.	.	4B-/	.	.	.
=29-	=29-	=29-	=29-	=29-	=29-	=29-	=29-
2r	.	.	.	2A/	.	1.c	-ri-
*custos:F	*	*	*	*	*	*	*
2C/	glo-	1a	.	2G/	.	.	.
*xywh-#580:5703,1386,4293,883	*	*	*	*	*	*	*
!LO:LB:g=original	!	!	!	!	!	!	!
1.F	-ria	.	.	1A	.	.	.
!	!	!LO:TX:t=P:problem=kreska pseudotaktowa	!	!	!	!LO:TX:t=P:problem=kreska pseudotaktowa	!
.	.	2.f\	.	.	.	2d/	-a
=30-	=30-	=30-	=30-	=30-	=30-	=30-	=30-
.	.	.	.	2r	.	2c/	tu-
.	.	4e\	.	.	.	.	.
!LO:TX:t=P:problem=kreska pseudotaktowa	!	!	!	!	!	!	!
2G\	tu-	4d\	.	2G/	gl(o-	2B-/	-a,
!	!	!LO:TX:t=P:problem=kreska pseudotaktowa	!	!	!	!	!
.	.	4e\	.	.	.	.	.
2F\	-a,	2f\	.	1c	-ri)-	2A/	.
!	!	!	!	!	!	!LO:TX:t=P:problem=kreska pseudotaktowa	!
2E\	.	2g\	.	.	.	2G/	.
=31-	=31-	=31-	=31-	=31-	=31-	=31-	=31-
2D/	.	2a\	.	2B-/	-a	2F/	.
*	*	*	*	*	*	*xywh-#22:1065,2808,4211,774	*
!LO:TX:t=P:problem=kreska pseudotaktowa	!	!	!	!	!	!LO:LB:g=original	!
2C/	.	2.e\	.	4A/	tu-	2.c/	.
.	.	.	.	4G/	.	.	.
2.F\	.	.	.	4A/	.	.	.
.	.	4d\	.	4B-/	.	4B-/	.
*	*	*	*	*custos:d	*	*	*
!	!	!LO:TX:t=P:problem=kreska pseudotaktowa	!	!	!	!	!
.	.	2c/	.	2c/	.	4A/	.
!	!	!	!	!	!	!LO:TX:t=P:problem=kreska pseudotaktowa	!
4E\	.	.	.	.	.	4G/	.
!	!	!	!	!LO:LB:g=original	!	!	!
=32-	=32-	=32-	=32-	=32-	=32-	=32-	=32-
*	*	*	*	*xywh-#382:6278,1271,4069,778	*	*	*
2D/	.	2d/	.	2d\	.	2B-/	.
*	*	*xywh-#408:5589,3450,4400,635	*	*	*	*	*
2C/	.	2.f\	.	1e	.	2.A/	.
1BB-	.	.	.	.	.	.	.
.	.	4e\	.	.	.	4G/	.
!	!	!	!	!	!	!LO:TX:t=P:problem=kreska pseudotaktowa	!
.	.	4f\	.	1d	.	2G/	.
.	.	4g\	.	.	.	.	.
=33-	=33-	=33-	=33-	=33-	=33-	=33-	=33-
!LO:TX:t=P:problem=kreska pseudotaktowa	!	!	!	!	!	!	!
1AA	.	2f\	.	.	.	0A	.
!	!	!LO:TX:t=P:problem=kreska pseudotaktowa	!	!	!	!	!
.	.	2c/	.	4c/	.	.	.
.	.	.	.	4B-/	.	.	.
2r	.	2d/	.	1c	.	.	.
2AA/	glo-	1f\	.	.	.	.	.
=34-	=34-	=34-	=34-	=34-	=34-	=34-	=34-
1.D	-ri-	.	.	1d	-a	2r	.
!	!	!LO:TX:t=P:problem=kreska pseudotaktowa	!	!	!	!LO:TX:t=P:problem=kreska pseudotaktowa	!
.	.	2a\	.	.	.	2F/	.
.	.	2d\	.	2r	.	1.A	.
*	*	*	*	*	*ij	*	*
!LO:TX:t=P:problem=kreska pseudotaktowa	!	!	!	!	!	!	!
2C/	-a	2.e\	.	2A/	gl(o-	.	.
=35-	=35-	=35-	=35-	=35-	=35-	=35-	=35-
2D/	tu-	.	.	2d/	-ri)-	.	.
.	.	4f\	.	.	.	.	.
!	!	!LO:TX:t=P:problem=kreska pseudotaktowa	!	!	!	!	!
2E\	-a,	2g\	.	1c	-a	2G/	.
2.F\	.	2f\	.	.	.	4A/	.
.	.	.	.	.	.	4G/	.
!	!	!LO:TX:t=P:problem=kreska pseudotaktowa	!	!	!	!	!
.	.	2a\	.	2d/	tu-	4A/	.
!LO:TX:t=P:problem=kreska pseudotaktowa	!	!	!	!	!	!LO:TX:t=P:problem=kreska pseudotaktowa	!
4D\	.	.	.	.	.	4B-/	.
=36-	=36-	=36-	=36-	=36-	=36-	=36-	=36-
2E\	.	2g\	.	2G/	-a	2.c/	.
*	*	*	*	*	*Xij	*	*
*custos:G	*	*	*	*	*	*	*
2F\	.	4f\	.	2c/	gl(o-	.	.
!	!	!LO:TX:t=P:problem=kreska pseudotaktowa	!	!	!	!	!
.	.	4e\	.	.	.	4A/	.
*xywh-#580:5714,2082,4270,883	*	*	*	*	*	*	*
!LO:LB:g=original	!	!	!	!	!	!	!
2G\	.	2d/	.	2B-/	-ri)-	2B-/	.
!LO:TX:t=P:problem=kreska pseudotaktowa	!	!LO:N:vis=1	!	!	!	!	!
2A\	.	2c\	.	1A	-a	2c/	.
=37-	=37-	=37-	=37-	=37-	=37-	=37-	=37-
!	!	!	!	!	!	!LO:TX:t=P:problem=kreska pseudotaktowa	!
2D/	.	4B-/	.	.	.	1d	.
!	!	!LO:TX:t=P:problem=kreska pseudotaktowa	!	!	!	!	!
.	.	4A/	.	.	.	.	.
2.F\	.	4B-/	.	2.A/	tu-	.	.
.	.	4c/	.	.	.	.	.
*	*	*	*	*	*	*xywh-#22:5664,495,4391,1066	*
!	!	!	!	!	!	!LO:PB:g=original	!
.	.	2.d/	.	.	.	2c/	-glo-
4E\	.	.	.	4G/	.	.	.
4D/	.	.	.	4F/	.	2.f\	-ri-
!LO:TX:t=P:problem=kreska pseudotaktowa	!	!	!	!	!	!	!
4C/	.	4c\	.	4E/	.	.	.
=38-	=38-	=38-	=38-	=38-	=38-	=38-	=38-
2BB-/	.	4B-/	.	2F/	.	.	.
!	!	!LO:TX:t=P:problem=kreska pseudotaktowa	!	!	!	!	!
.	.	4G/	.	.	.	4e\	-a
2.B-\	.	4g\	.	2.G/	.	4d\	.
!	!	!	!	!	!	!LO:TX:t=P:problem=kreska pseudotaktowa	!
.	.	4f\	.	.	.	4c\	.
.	.	4e\	.	.	.	2d\	.
!	!	!LO:TX:t=P:problem=kreska pseudotaktowa	!	!	!	!	!
4A\	tu-	4f\	.	4A/	.	.	.
4G\	-a;	2.d\	.	4B-/	.	2.B-/	.
!LO:TX:t=P:problem=kreska pseudotaktowa	!	!	!	!	!	!	!
4F\	.	.	.	4c/	.	.	.
=39-	=39-	=39-	=39-	=39-	=39-	=39-	=39-
2G\	.	.	.	1d	.	.	.
.	.	4c/	.	.	.	4A/	tu-
2.F\	.	4B-/	.	.	.	4G/	-a,
.	.	4c/	.	.	.	4F/	.
.	.	4d\	.	1c	.	1G	.
!	!	!LO:TX:t=P:problem=kreska pseudotaktowa	!	!	!	!	!
4E\	.	4c\	.	.	.	.	.
!	!	!LO:N:vis=2	!	!	!	!	!
2E\	.	4B-/	.	.	.	.	.
!	!	!LO:N:vis=2	!	!	!	!	!
.	.	4B-/	.	.	.	.	.
=40-	=40-	=40-	=40-	=40-	=40-	=40-	=40-
*custos:F	*	*	*	*	*	*	*
0Fl;<	.	0Al;;	.	0cl	-a	0Fl;	.
!LO:LB:g=original	!	!	!	!LO:LB:g=original	!	!	!
=41||	=41||	=41||	=41||	=41||	=41||	=41||	=41||
*xywh-#580:5726,2846,4248,889	*	*xywh-#408:891,2826,4537,865	*	*xywh-#211:1171,2741,4363,879	*	*	*
*	*	*clefC4	*	*	*	*	*
*M3/1	*	*M3/1	*	*M3/1	*	*M3/1	*
*met(C|3)	*	*met(C|3)	*	*met(C|3)	*	*met(C|3)	*
!LO:TX:t=P:problem=kreska pseudotaktowa	!	!	!	!LO:TX:t=P:problem=kreska pseudotaktowa	!	!	!
0.r	.	0c	O-	00.r	.	00.r	.
!	!	!LO:TX:t=P:problem=kreska pseudotaktowa	!	!	!	!	!
.	.	1B-	-ſan-	.	.	.	.
=42-	=42-	=42-	=42-	=42-	=42-	=42-	=42-
0F	O-	0A	-na	.	.	.	.
!LO:TX:t=P:problem=kreska pseudotaktowa	!	!LO:TX:t=P:problem=kreska pseudotaktowa	!	!	!	!	!
1E	-ſan-	1G	in	.	.	.	.
=43-	=43-	=43-	=43-	=43-	=43-	=43-	=43-
!	!	!	!	!	!	!LO:TX:t=P:problem=kreska pseudotaktowa	!
0D	-na	1.F	ex-	0f	-O-	0.r	.
.	.	2G/	-cel-	.	.	.	.
!LO:TX:t=P:problem=kreska pseudotaktowa	!	!LO:TX:t=P:problem=kreska pseudotaktowa	!	!LO:TX:t=P:problem=kreska pseudotaktowa	!	!	!
1C	in	1A	.	1e	-ſan-	.	.
=44-	=44-	=44-	=44-	=44-	=44-	=44-	=44-
0BB-	ex-	0D	-ſis,	0d	-na	0f	O-
!LO:TX:t=P:problem=kreska pseudotaktowa	!	!	!	!LO:TX:t=P:problem=kreska pseudotaktowa	!	!	!
1C	-cel-	1E	.	1c	.	1e	-ſan-
=45-	=45-	=45-	=45-	=45-	=45-	=45-	=45-
1.D	-ſis,	0F	.	1.A	in	0d	-na
2E/	.	.	.	2G/	ex-	.	.
*	*	*	*	*	*	*custos:d	*
!LO:TX:t=P:problem=kreska pseudotaktowa	!	!LO:TX:t=P:problem=kreska pseudotaktowa	!	!	!	!LO:TX:t=P:problem=kreska pseudotaktowa	!
1F	.	1r	.	2A/	-cel-	1c	in
!	!	!	!	!LO:TX:t=P:problem=kreska pseudotaktowa	!	!	!
.	.	.	.	2F/	-ſis	.	.
!	!	!	!	!	!	!LO:LB:g=original	!
=46-	=46-	=46-	=46-	=46-	=46-	=46-	=46-
*	*	*	*	*	*	*xywh-#22:5776,1275,4245,1010	*
*	*	*	*ij	*	*	*	*
1.BB-	.	0B-	O-	1.f	.	1.d	ex-
*	*	*	*	*2\right	*	*	*
2C/	.	.	.	2e\	.	2e\	-cel-
*	*	*custos:G	*	*	*	*	*
!LO:TX:t=P:problem=kreska pseudotaktowa	!	!LO:TX:t=P:problem=kreska pseudotaktowa	!	!	!	!LO:TX:t=P:problem=kreska pseudotaktowa	!
1D	.	1A	-ſan-	2d\	.	1f	-ſis,
!	!	!	!	!LO:TX:t=P:problem=kreska pseudotaktowa	!	!	!
.	.	.	.	2c/	.	.	.
!	!	!LO:PB:g=original	!	!	!	!	!
=47-	=47-	=47-	=47-	=47-	=47-	=47-	=47-
*	*	*xywh-#408:5778,528,4428,962	*	*	*	*	*
*	*	*lig	*	*	*	*	*
1.GG	.	1G	-na	1.B-	.	0g	.
.	.	1.B-	.	.	.	.	.
2AA/	.	.	.	2c/	.	.	.
*	*	*	*	*custos:B	*	*	*
!	!	!	!	!LO:TX:t=P:problem=kreska pseudotaktowa	!	!LO:TX:t=P:problem=kreska pseudotaktowa	!
2BB-/	.	.	.	1d	.	1f	.
*	*	*Xlig	*	*	*	*	*
*custos:D	*	*	*	*	*	*	*
!LO:TX:t=P:problem=kreska pseudotaktowa	!	!LO:TX:t=P:problem=kreska pseudotaktowa	!	!	!	!	!
2C/	.	2A/	.	.	.	.	.
!LO:PB:g=original	!	!	!	!LO:PB:g=original	!	!	!
=48-	=48-	=48-	=48-	=48-	=48-	=48-	=48-
*xywh-#581:1091,568,4329,880	*	*	*	*xywh-#211:5791,582,4374,908	*	*	*
*col	*	*	*	*col	*	*	*
1D	.	2G/	.	1B-	.	1.f	.
.	.	2F/	.	.	.	.	.
!	!	!LO:TX:t=P:problem=kreska pseudotaktowa	!	!	!	!	!
0C	.	0G	in	0c	.	.	.
.	.	.	.	.	.	4e\	.
.	.	.	.	.	.	4d\	.
!	!	!	!	!	!	!LO:TX:t=P:problem=kreska pseudotaktowa	!
.	.	.	.	.	.	1e	.
*Xcol	*	*	*	*Xcol	*	*	*
=49-	=49-	=49-	=49-	=49-	=49-	=49-	=49-
!	!	!	!	!LO:TX:t=P:problem=kreska pseudotaktowa	!	!	!
0.FF	.	1.F	ex-	0.A	.	0f	.
.	.	2E/	.	.	.	.	.
.	.	2D/	.	.	.	1r	.
!	!	!LO:TX:t=P:problem=kreska pseudotaktowa	!	!	!	!	!
.	.	2C/	.	.	.	.	.
=50-	=50-	=50-	=50-	=50-	=50-	=50-	=50-
*	*	*	*	*	*	*	*ij
!LO:TX:t=P:problem=kreska pseudotaktowa	!	!	!	!	!	!	!
0.BB-	.	1.D	-cel-	1r	.	0f	O-
!	!	!	!	!LO:TX:t=P:problem=kreska pseudotaktowa	!	!	!
.	.	.	.	0B-	o-	.	.
.	.	2E/	.	.	.	.	.
!	!	!LO:TX:t=P:problem=kreska pseudotaktowa	!	!	!	!LO:TX:t=P:problem=kreska pseudotaktowa	!
.	.	1F	.	.	.	1d	-ſan-
=51-	=51-	=51-	=51-	=51-	=51-	=51-	=51-
00.r	.	0C	-ſis	1G	-ſan-	0e	-na
*	*	*	*Xij	*	*	*	*
!	!	!	!	!LO:TX:t=P:problem=kreska pseudotaktowa	!	!	!
.	.	.	.	0A	-na	.	.
!	!	!LO:TX:t=P:problem=kreska pseudotaktowa	!	!	!	!LO:TX:t=P:problem=kreska pseudotaktowa	!
.	.	1r	.	.	.	1c	in
=52-	=52-	=52-	=52-	=52-	=52-	=52-	=52-
.	.	0.r	.	1F	.	1.d	ex-
.	.	.	.	1G	in	.	.
.	.	.	.	.	.	2c\	ex-
!	!	!	!	!LO:TX:t=P::problem=kreska pseudotaktowa&colon;między nutą a kropką	!	!	!
.	.	.	.	1.B-	ex-	2d\	.
!	!	!	!	!	!	!LO:TX:t=P:problem=kreska pseudotaktowa	!
.	.	.	.	.	.	2e\	.
=53-	=53-	=53-	=53-	=53-	=53-	=53-	=53-
!LO:TX:t=P:problem=kreska pseudotaktowa	!	!	!	!	!	!	!
0.r	.	1r	.	.	.	1.f	.
.	.	.	.	2A/	-cel-	.	.
.	.	1r	.	2F/	.	.	.
.	.	.	.	2G/	.	2e\	.
*	*	*	*	*	*	*custos:f	*
!	!	!LO:TX:t=P:problem=kreska pseudotaktowa	!	!LO:TX:t=P::problem=kreska pseudotaktowa&colon;między nutą a kropką	!	!	!
.	.	1c	O-	1.A	.	1e	-cel-
!	!	!	!	!	!	!LO:LB:g=original	!
=54-	=54-	=54-	=54-	=54-	=54-	=54-	=54-
*	*	*	*	*	*	*xywh-#22:5720,1977,4436,993	*
0F	O-	1c	-ſan-	.	.	0.f	-ſis
*	*	*	*	*	*	*	*Xij
.	.	.	.	2B-/	.	.	.
.	.	1A	-na	1c	.	.	.
!	!	!	!	!LO:TX:t=P:problem=kreska pseudotaktowa	!	!	!
1D	-ſan-	0B-	in	1d	.	.	.
=55-	=55-	=55-	=55-	=55-	=55-	=55-	=55-
0E-X	-na	.	.	1G	.	00.r	.
*	*	*custos:A	*	*	*	*	*
.	.	1G	ex-	1B-	.	.	.
*	*	*	*	*custos:A	*	*	*
*	*	*xywh-#408:5778,1354,4239,876	*	*	*	*	*
!LO:TX:t=P:problem=kreska pseudotaktowa	!	!LO:LB:g=original	!	!LO:TX:t=P:problem=kreska pseudotaktowa	!	!	!
1C	in	1.A	-cel-	1c	.	.	.
!	!	!	!	!LO:LB:g=original	!	!	!
=56-	=56-	=56-	=56-	=56-	=56-	=56-	=56-
*	*	*	*	*xywh-#211:5803,1313,4260,873	*	*	*
1D	ex-	.	.	1A	.	.	.
.	.	2F/	-ſis,	.	.	.	.
!	!	!LO:TX:t=P:problem=kreska pseudotaktowa	!	!	!	!	!
2BB-/	-cel-	0B-	.	0d	.	.	.
2C/	-ſis,	.	.	.	.	.	.
2D/	.	.	.	.	.	.	.
!LO:TX:t=P:problem=kreska pseudotaktowa	!	!	!	!	!	!	!
2Eny/	.	.	.	.	.	.	.
=57-	=57-	=57-	=57-	=57-	=57-	=57-	=57-
*	*	*col	*	*	*	*	*
!	!	!	!	!	!	!LO:TX:t=P:problem=kreska pseudotaktowa	!
1.F	.	1A	.	1c	.	0.r	.
!	!	!	!	!LO:TX:t=P:problem=kreska pseudotaktowa	!	!	!
.	.	0G	.	0B-	.	.	.
4E\	.	.	.	.	.	.	.
4D\	.	.	.	.	.	.	.
!LO:TX:t=P:problem=kreska pseudotaktowa	!	!	!	!	!	!	!
1E	.	.	.	.	.	.	.
*	*	*Xcol	*	*	*	*	*
=58-	=58-	=58-	=58-	=58-	=58-	=58-	=58-
0F	.	0F	.	1.A	.	0f	o-
.	.	.	.	2G/	-ſis	.	.
*custos:C	*	*	*	*	*	*	*
!	!	!LO:TX:t=P:problem=kreska pseudotaktowa	!	!LO:TX:t=P:problem=kreska pseudotaktowa	!	!	!
1BB-	.	1r	.	1F	.	1d	-ſan-
!LO:LB:g=original	!	!	!	!	!	!	!
=59-	=59-	=59-	=59-	=59-	=59-	=59-	=59-
*xywh-#581:1098,1321,4470,907	*	*	*	*	*	*	*
*	*	*	*	*	*ij	*	*
0C	in	0G	in	0c	o-	0e	-na
!LO:TX:t=P:problem=kreska pseudotaktowa	!	!LO:TX:t=P:problem=kreska pseudotaktowa	!	!LO:TX:t=P:problem=kreska pseudotaktowa	!	!LO:TX:t=P:problem=kreska pseudotaktowa	!
1AA	ex-	1A	.	1c	-ſan-	1c	in
=60-	=60-	=60-	=60-	=60-	=60-	=60-	=60-
1.BB-	-cel-	1F	ex-	1B-	-na	1.d	.
.	.	1.B-	-cel-	1.d	in	.	.
2AA/	-ſis,	.	.	.	.	2c\	ex-
2BB-/	.	.	.	.	.	2d\	-cel-
!LO:TX:t=P:problem=kreska pseudotaktowa	!	!LO:TX:t=P:problem=kreska pseudotaktowa	!	!LO:TX:t=P:problem=kreska pseudotaktowa	!	!	!
2C/	.	2A/	-ſis;	2c/	.	2e\	-ſis;
=61-	=61-	=61-	=61-	=61-	=61-	=61-	=61-
*col	*	*	*	*	*	*	*
1D	.	2G/	.	2B-/	.	1.f	.
.	.	2F/	.	2A/	.	.	.
0C	.	0G	.	1.c	ex-	.	.
.	.	.	.	.	.	4e\	.
.	.	.	.	.	.	4d\	.
.	.	.	.	.	.	1e	.
!	!	!	!	!LO:TX:t=P:problem=kreska pseudotaktowa	!	!	!
.	.	.	.	2B-/	.	.	.
*Xcol	*	*	*	*	*	*	*
=62-	=62-	=62-	=62-	=62-	=62-	=62-	=62-
!LO:TX:b:t=Benedictus non\nloqui poteſt,	!	!	!	!	!	!	!
!LO:TX:b:i:t=Vide infine\nBenedict(us)	!	!	!	!	!	!LO:TX:b:i:t=Benedictus Vide\nceſ<..> infra Tenor\nut eſt in alt(us).	!
[0.FFl;	.	[0.Fl;	.	2A/	.	[0.f;l	.
.	.	.	.	2G/	.	.	.
.	.	.	.	1.A	-cel-	.	.
.	.	.	.	2B-/	.	.	.
=63-	=63-	=63-	=63-	=63-	=63-	=63-	=63-
0.FF]	.	0.F]	.	0.cl;<	-ſis	0.f]	.
*	*	*	*	*	*Xij	*	*
!	!	!LO:LB:g=original	!	!	!	!LO:LB:g=original	!
=64||	=64||	=64||	=64||	=64||	=64||	=64||	=64||
*	*	*xywh-#408:5795,2047,4262,888	*	*xywh-#211:5803,1993,4312,908	*	*xywh-#382:6096,1719,4640,995	*
*	*	*M2/1	*	*M2/1	*	*	*
*	*	*met(C|)	*	*met(C|)	*	*	*
!	!	!LO:TX:t=P:problem=kreska pseudotaktowa	!	!	!	!LO:TX:t=P:problem=alternatywna wersja dopisana na str. 189 [karta 0382]	!
!	!	!LO:TX:a:t=Dvo	!	!LO:TX:a:t=&colon;Dvo&colon;	!	!LO:TX:a:i:t=Cant. 4.	!
0ryy	.	0r	.	1.c	Be-	1r	.
.	.	.	.	.	.	.	.
.	.	.	.	.	.	1.c	Be-
!	!	!	!	!LO:TX:t=P:problem=kreska pseudotaktowa	!	!	!
.	.	.	.	2c/	-ne-	.	.
=65-	=65-	=65-	=65-	=65-	=65-	=65-	=65-
0ryy	.	1.c	Be-	2A/	-dic-	.	.
.	.	.	.	2F/	-tus	2c/	-ne-
.	.	.	.	.	.	.	.
.	.	.	.	2.A/	qui	2A/	-dic-
.	.	.	.	.	.	.	.
*	*	*2\right	*	*	*	*	*
!	!	!LO:TX:t=P:problem=kreska pseudotaktowa	!	!	!	!	!
.	.	2c\	-ne-	.	.	2F/	tuſ
!	!	!	!	!LO:TX:t=P:problem=kreska pseudotaktowa	!	!	!
.	.	.	.	4B-/	.	.	.
=66-	=66-	=66-	=66-	=66-	=66-	=66-	=66-
0ryy	.	2A/	-dic-	4c/	.	2.A/	qui
.	.	.	.	4d\	.	.	.
!	!	!LO:TX:t=P:problem=kreska pseudotaktowa	!	!	!	!	!
.	.	2F/	-tus	2.c/	.	.	.
.	.	.	.	.	.	4B-/	.
.	.	2.A/	.	.	.	4c/	.
.	.	.	.	4B-/	.	4d/	.
.	.	.	.	4A/	.	2.c/	.
!	!	!	!	!LO:TX:t=P:problem=kreska pseudotaktowa	!	!	!
.	.	4B-\	qui	4G/	.	.	.
=67-	=67-	=67-	=67-	=67-	=67-	=67-	=67-
0ryy	.	4c\	.	2.F/	.	.	.
.	.	4d\	.	.	.	4B-/	.
!	!	!LO:TX:t=P::problem=kreska pseudotaktowa&colon;między nutą a kropką	!	!	!	!	!
.	.	2.c\	.	.	.	4A/	.
!	!	!	!	!LO:TX:t=P:problem=kreska pseudotaktowa	!	!	!
.	.	.	.	4G/	.	4G/	.
.	.	.	.	4A/	.	4F/	ve-
.	.	4B-\	.	4B-/	.	4G/	.
.	.	4A/	.	2.c/	.	4A/	.
!	!	!LO:TX:t=P:problem=kreska pseudotaktowa	!	!	!	!	!
.	.	4G/	.	.	.	4B-/	.
=68-	=68-	=68-	=68-	=68-	=68-	=68-	=68-
0ryy	.	4A/	.	.	.	1c	-nit
.	.	4B-\	.	4d\	.	.	.
.	.	4c\	.	4e\	.	.	.
*	*	*	*	*custos:g	*	*	*
!	!	!LO:TX:t=P:problem=kreska pseudotaktowa	!	!	!	!	!
.	.	4A/	.	4f\	.	.	.
*	*	*	*	*xywh-#211:5763,2770,4317,856	*	*	*
!	!	!	!	!LO:LB:g=original	!	!	!
.	.	4B-\	.	2g\	.	1r	.
.	.	4A/	ve-	.	.	.	.
.	.	4G/	.	2.f\	.	.	.
.	.	4F/	-nit,	.	.	.	.
=69-	=69-	=69-	=69-	=69-	=69-	=69-	=69-
*	*	*custos:F	*	*	*	*	*
!	!	!LO:TX:t=P:problem=kreska pseudotaktowa	!	!	!	!	!
0ryy	.	1G	.	.	.	2r	.
.	.	.	.	4e\	ue-	.	.
.	.	.	.	2e\	-nit,	1c	in
.	.	.	.	.	.	.	.
*	*	*xywh-#408:5789,2826,4337,836	*	*	*	*	*
!	!	!LO:LB:g=original	!	!LO:TX:t=P:problem=kreska pseudotaktowa	!	!	!
.	.	1F	.	0f	.	.	.
.	.	.	.	.	.	2c/	no-
=70-	=70-	=70-	=70-	=70-	=70-	=70-	=70-
0ryy	.	2r	.	.	.	2A/	-(mi)-
.	.	1B-	in	.	.	2F/	-ne
.	.	.	.	.	.	.	.
*	*	*	*	*	*	*2\left	*
.	.	.	.	2r	.	2f\	do-
.	.	.	.	.	.	.	.
.	.	.	.	.	.	.	.
!	!	!LO:TX:t=P:problem=kreska pseudotaktowa	!	!	!	!	!
.	.	2B-\	no-	1.f\	in	2d\	-m(i-
.	.	.	.	.	.	.	.
=71-	=71-	=71-	=71-	=71-	=71-	=71-	=71-
0ryy	.	2A/	-mi-	.	.	2c/	-n)i
.	.	2F/	.	.	.	2.c/	do-
!	!	!	!	!LO:TX:t=P:problem=kreska pseudotaktowa	!	!	!
.	.	2.c\	-ne	2e\	no-	.	.
.	.	.	.	.	.	4B-/	.
.	.	.	.	2c/	.	2G/	.
.	.	8B-\L	do-	.	.	.	.
.	.	8A\J	.	.	.	.	.
=72-	=72-	=72-	=72-	=72-	=72-	=72-	=72-
!	!	!LO:TX:t=P:problem=kreska pseudotaktowa	!	!	!	!	!
0ryy	.	2G/	-mi-	2.g\	-mi-	2c/	.
*	*	*	*	*	*	*custos:F	*
.	.	2.B-\	-ni,	.	.	2B-/	.
.	.	.	.	8f\L	-ne	.	.
.	.	.	.	8e\J	.	.	.
*	*	*	*	*	*	*xywh-#382:6269,2380,4325,886	*
!	!	!	!	!LO:TX:t=P:problem=kreska pseudotaktowa	!	!LO:LB:g=original	!
.	.	.	.	2d/	.	2.F/	.
.	.	4A/	.	.	.	.	.
!	!	!LO:TX:t=P:problem=kreska pseudotaktowa	!	!	!	!	!
.	.	2.F/	.	2.f\	.	.	.
.	.	.	.	.	.	4G/	.
=73-	=73-	=73-	=73-	=73-	=73-	=73-	=73-
0ryy	.	.	.	.	.	4A/	.
.	.	4G/	.	4e\	do-	4B-/	.
.	.	4A/	.	2.c/	.	2c/	.
!	!	!LO:TX:t=P:problem=kreska pseudotaktowa	!	!	!	!	!
.	.	4B-\	.	.	.	.	.
.	.	2c\	.	.	.	2A/	-m(i-
!	!	!	!	!LO:TX:t=P:problem=kreska pseudotaktowa	!	!	!
.	.	.	.	4d\	.	.	.
.	.	2.C/	.	4e\	.	2G/	-n)i
.	.	.	.	4f\	.	.	.
=74-	=74-	=74-	=74-	=74-	=74-	=74-	=74-
*	*	*	*	*	*	*	*ij
*	*	*	*	*custos:G	*	*	*
!	!	!	!	!LO:TX:t=P:problem=kreska pseudotaktowa	!	!	!
0ryy	.	.	.	2g\	.	1c	in
.	.	4D/	.	.	.	.	.
*	*	*	*	*xywh-#212:1278,449,4202,925	*	*	*
!	!	!	!	!LO:PB:g=original	!	!	!
.	.	4E/	.	2.G/	.	.	.
*	*	*custos:G	*	*	*	*	*
!	!	!LO:TX:t=P:problem=kreska pseudotaktowa	!	!	!	!	!
.	.	4F/	.	.	.	.	.
*	*	*xywh-#409:1133,567,4312,917	*	*	*	*	*
!	!	!LO:PB:g=original	!	!	!	!	!
.	.	4G/	.	.	.	2B-/	no-
!	!	!	!	!LO:TX:t=P:problem=kreska pseudotaktowa	!	!	!
.	.	4F/	.	4A/	.	.	.
.	.	4G/	.	4B-/	.	1.d	-(mi)-
!	!	!LO:TX:t=P:problem=kreska pseudotaktowa	!	!	!	!	!
.	.	4A/	.	4c/	.	.	.
=75-	=75-	=75-	=75-	=75-	=75-	=75-	=75-
0ryy	.	2.B-\	.	4d\	.	.	.
!	!	!	!	!LO:TX:t=P:problem=kreska pseudotaktowa	!	!	!
.	.	.	.	4e\	.	.	.
.	.	.	.	2f\	.	.	.
.	.	4A/	.	.	.	.	.
.	.	2G/	.	2e\	.	2c/	.
.	.	.	.	.	.	.	.
!	!	!LO:TX:t=P:problem=kreska pseudotaktowa	!	!	!	!	!
.	.	2F/	.	2.d/	.	2B-/	-ne
=76-	=76-	=76-	=76-	=76-	=76-	=76-	=76-
0ryy	.	2E/	.	.	.	2G/	do-
!	!	!	!	!LO:TX:t=P:problem=kreska pseudotaktowa	!	!	!
.	.	.	.	4c/	.	.	.
.	.	2F/	.	2.c/	-mi-	2A/	-m(i-
.	.	1D	.	.	.	2G/	-n)i
*	*	*	*	*	*	*	*Xij
.	.	.	.	4B-/	-ni	.	.
.	.	.	.	2B-/	.	1G	in
.	.	.	.	.	.	.	.
=77-	=77-	=77-	=77-	=77-	=77-	=77-	=77-
!	!	!LO:TX:t=P:problem=kreska pseudotaktowa	!	!LO:TX:t=P:problem=kreska pseudotaktowa	!	!	!
0ryy	.	1C	.	0c	.	.	.
.	.	.	.	.	.	2G/	no-
.	.	2r	.	.	.	2E/	-(mi)-
.	.	1F/	in	.	.	2C/	-ne
=78-	=78-	=78-	=78-	=78-	=78-	=78-	=78-
0ryy	.	.	.	2r	.	4F/	Do-
.	.	.	.	.	.	4G/	.
*	*	*	*	*	*ij	*	*
!	!	!LO:TX:t=P:problem=kreska pseudotaktowa	!	!	!	!	!
.	.	2F/	.	1c	in	4A/	.
.	.	.	.	.	.	4B-/	.
.	.	2E/	no-	.	.	2c/	.
!	!	!	!	!LO:TX:t=P:problem=kreska pseudotaktowa	!	!	!
.	.	2C/	-mi-	2c/	no-	2G/	-mi-
=79-	=79-	=79-	=79-	=79-	=79-	=79-	=79-
0ryy	.	2.F/	-ne	2A/	-mi-	4F/	-nj
.	.	.	.	.	.	4G/	.
*	*	*	*	*custos:c	*	*	*
!	!	!	!	!LO:TX:t=P:problem=kreska pseudotaktowa	!	!	!
.	.	.	.	2F/	-ne	4A/	.
!	!	!LO:TX:t=P:problem=kreska pseudotaktowa	!	!	!	!	!
.	.	4G/	do:	.	.	4B-/	.
*	*	*	*	*xywh-#212:1272,1178,4180,981	*	*	*
!	!	!	!	!LO:LB:g=original	!	!	!
.	.	4A/	.	2.c/	do-	2c/	.
*	*	*custos:c	*	*	*	*	*
.	.	4B-/	.	.	.	.	.
*	*	*xywh-#409:1218,1322,4176,923	*	*	*	*	*
!	!	!LO:LB:g=original	!	!	!	!	!
.	.	2.c\	do-	.	.	2.C/	Do-
!	!	!	!	!LO:TX:t=P:problem=kreska pseudotaktowa	!	!	!
.	.	.	.	4d\	.	.	.
=80-	=80-	=80-	=80-	=80-	=80-	=80-	=80-
0ryy	.	.	.	4e\	.	.	.
.	.	4B-\	-mi-	4f\	.	4D/	.
*	*	*lig	*	*	*	*	*
.	.	1G	-ni;	2.g\	.	4E/	.
.	.	.	.	.	.	4F/	.
.	.	.	.	.	.	4G/	.
.	.	.	.	4f\	.	4A/	.
.	.	1B-\	.	4d\	.	4B-/	.
*	*	*	*	*	*	*custos:d	*
.	.	.	.	4e\	.	4c/	.
!	!	!	!	!LO:TX:t=P:problem=kreska pseudotaktowa	!	!	!
*	*	*Xlig	*	*	*	*	*
!	!	!	!	!	!	!LO:LB:g=original	!
=81-	=81-	=81-	=81-	=81-	=81-	=81-	=81-
*	*	*	*	*	*	*xywh-#382:6239,3079,4241,783	*
0ryy	.	.	.	1f	-mi-	2d/	.
!	!	!LO:TX:t=P:problem=kreska pseudotaktowa	!	!	!	!	!
.	.	2A/	.	.	.	2.c/	.
.	.	.	.	.	.	.	.
.	.	2G/	.	2e\	.	.	.
.	.	.	.	.	.	4B-/	.
!	!	!LO:TX:t=P::problem=kreska pseudotaktowa&colon;między nutą a kropką	!	!LO:TX:t=P:problem=kreska pseudotaktowa	!	!	!
.	.	2.F/	.	2d\	.	4A/	.
.	.	.	.	.	.	4G/	.
=82-	=82-	=82-	=82-	=82-	=82-	=82-	=82-
0ryy	.	.	.	2.c/	.	2.A/	.
.	.	4E/	.	.	.	.	.
.	.	4C/	.	.	.	.	.
!	!	!LO:TX:t=P:problem=kreska pseudotaktowa	!	!	!	!	!
.	.	4D/	.	4B-/	.	8G/L	.
.	.	.	.	.	.	8F/J	.
.	.	2E/	.	4G/	.	4E/	.
.	.	.	.	4A/	.	4F/	.
!	!	!LO:TX:t=P::problem=kreska pseudotaktowa&colon;między nutą a kropką	!	!LO:TX:t=P:problem=kreska pseudotaktowa	!	!	!
.	.	2.D/	.	2B-/	-ni	2G/	.
*	*	*	*	*	*Xij	*	*
=83-	=83-	=83-	=83-	=83-	=83-	=83-	=83-
0ryy	.	.	.	2.A/	do-	4F/	.
.	.	4C/	.	.	.	4G/	.
!	!	!LO:TX:t=P::problem=kreska pseudotaktowa&colon;między nutą a kropką	!	!	!	!	!
.	.	2.F/	.	.	.	4A/	.
.	.	.	.	8G/L	-mi-	4B-/	.
.	.	.	.	8F/J	.	.	.
!	!	!	!	!	!	!LO:LB:g=original	!
.	.	.	.	1G	-ni	2c/	.
.	.	4E/	.	.	.	.	.
.	.	2E/	.	.	.	2c/	-mi-
=84-	=84-	=84-	=84-	=84-	=84-	=84-	=84-
*	*	*custos:c	*	*custos:f	*	*	*
0ryy	.	0Fl;	.	0Fl;	.	0Al\	-nij.
==	==	==	==	==	==	==	==
*-	*-	*-	*-	*-	*-	*-	*-
!!!system-decoration: [(*)]
!!!RDF**kern: > = above
!!!RDF**kern: < = below
!!!RDF**kern: l = terminal long
!!!ENC: Mateusz Solarz
!!!END: 2022-02-02
!!!ENC: Andrzej Kubiczek
!!!END: 2022-02-25
!!!ENC-iiif: Antoni Szymański
!!!END-iiif: 2022-09-02
